img/enterprises/brand5.svg

<svg width="210" height="79" viewBox="0 0 210 79" fill="none" xmlns="http://www.w3.org/2000/svg">
<g id="62fbcc4358c3427af911102e_Waveless%20Logo.svg">
<path id="Vector" fill-rule="evenodd" clip-rule="evenodd" d="M29.4154 30.9704C32.1557 27.4682 36.5439 25.1992 41.4899 25.1992C46.4649 25.1992 50.8754 27.495 53.6125 31.0323C53.4959 31.1461 53.3899 31.2641 53.2938 31.3819C52.7924 31.9988 52.4152 32.7933 52.113 33.6002C51.5044 35.223 51.0402 37.3428 50.6105 39.3278L50.5723 39.5062C50.1434 41.4876 49.7448 43.3302 49.2629 44.6981C49.0464 45.3126 48.8411 45.7471 48.659 46.0254C48.469 45.7449 48.2534 45.3051 48.0253 44.6818C47.5098 43.2746 47.0763 41.3606 46.6167 39.317L46.6018 39.25V39.25C46.1602 37.287 45.6917 35.2042 45.1076 33.6099C44.8142 32.8091 44.4542 32.0224 43.9832 31.4113C43.5211 30.8115 42.7517 30.1346 41.6266 30.1346C40.5085 30.1346 39.7356 30.8041 39.2667 31.3972C38.7867 32.0044 38.4125 32.7877 38.1042 33.589C37.4834 35.2025 36.9758 37.3132 36.5034 39.3009L36.4546 39.5062C35.9869 41.4752 35.5496 43.3161 35.0532 44.6866C34.8637 45.21 34.6849 45.6082 34.5231 45.8926C34.3649 45.6095 34.1905 45.214 34.0062 44.695C33.53 43.3537 33.1128 41.5644 32.6648 39.6426L32.5864 39.3062C32.1222 37.3173 31.6185 35.2029 30.9889 33.5843C30.676 32.78 30.2933 31.9927 29.7982 31.3827C29.686 31.2446 29.5586 31.1044 29.4154 30.9704ZM27.7569 33.6596C27.8874 33.9044 28.0254 34.2079 28.1682 34.5749C28.7132 35.9759 29.175 37.8876 29.6505 39.9249L29.743 40.3218C30.1759 42.1807 30.6263 44.1143 31.1568 45.6082C31.4389 46.4027 31.7796 47.1809 32.2178 47.7857C32.6322 48.3578 33.3756 49.0966 34.5186 49.0966C35.6584 49.0966 36.4036 48.3614 36.8208 47.7919C37.2627 47.1885 37.609 46.4112 37.8968 45.6161C38.4486 44.0927 38.9184 42.1137 39.368 40.2198V40.2197L39.4368 39.9302C39.9212 37.8917 40.3876 35.9762 40.9286 34.5701C41.1793 33.9187 41.4139 33.4648 41.6182 33.1833C41.8118 33.4624 42.033 33.909 42.2676 34.5493C42.7832 35.9565 43.2163 37.8704 43.676 39.9141L43.691 39.981C44.1325 41.9441 44.601 44.0269 45.1851 45.621C45.4785 46.4222 45.8386 47.2088 46.3095 47.8198C46.7718 48.4197 47.541 49.0966 48.666 49.0966C49.797 49.0966 50.5634 48.4135 51.0202 47.8083C51.484 47.1942 51.8327 46.405 52.1144 45.6051C52.6559 44.0687 53.0864 42.0752 53.497 40.1787V40.1786L53.5558 39.9033C53.9978 37.8621 54.422 35.9557 54.946 34.5589C55.0594 34.2551 55.1712 33.996 55.2778 33.7784C56.0805 35.5264 56.5257 37.4566 56.5257 39.4856C56.5257 47.3756 49.7942 53.7721 41.4899 53.7721C33.1857 53.7721 26.4539 47.3756 26.4539 39.4856C26.4539 37.4105 26.9195 35.4387 27.7569 33.6596ZM41.4899 22.342C31.5249 22.342 23.4467 30.0174 23.4467 39.4856C23.4467 48.9537 31.5249 56.6291 41.4899 56.6291C51.4551 56.6291 59.5329 48.9537 59.5329 39.4856C59.5329 30.0174 51.4551 22.342 41.4899 22.342ZM41.8336 32.9441C41.8336 32.9445 41.8301 32.9471 41.8231 32.951C41.8301 32.9457 41.8336 32.9438 41.8336 32.9441ZM41.418 32.946C41.411 32.942 41.4075 32.9392 41.4075 32.9388C41.4075 32.9385 41.4111 32.9405 41.418 32.946ZM48.4373 46.2966C48.4373 46.2966 48.4406 46.2935 48.4471 46.2895C48.4406 46.2948 48.4373 46.297 48.4373 46.2966ZM48.8746 46.2851C48.8815 46.2891 48.8853 46.2917 48.8853 46.2922C48.8853 46.2926 48.8815 46.2904 48.8746 46.2851ZM34.2105 46.3223C34.2104 46.3218 34.2148 46.3178 34.2234 46.3121C34.2148 46.3196 34.2105 46.3227 34.2105 46.3223ZM34.8195 46.3147C34.8281 46.3205 34.8324 46.3245 34.8324 46.3249C34.8323 46.3253 34.828 46.3227 34.8195 46.3147Z" fill="#81818B"/>
<path id="Vector_2" d="M69.4958 49.6351L65.1205 35.4144H68.953L71.5481 45.6498L74.5652 35.4144H78.8503L81.868 45.6498L84.493 35.4144H88.3255L83.9197 49.6351H79.9066L76.7078 38.9982L73.5095 49.6351H69.4958Z" fill="#81818B"/>
<path id="Vector_3" d="M93.9487 49.9793C92.6614 49.9793 91.6051 49.7877 90.7804 49.4055C89.9561 49.0042 89.3424 48.4786 88.9397 47.8287C88.5376 47.1788 88.3365 46.4621 88.3365 45.6785C88.3365 44.3597 88.8793 43.2893 89.9656 42.4674C91.0518 41.6455 92.6819 41.2346 94.8544 41.2346H98.6564V40.8905C98.6564 39.9157 98.3645 39.199 97.7812 38.7402C97.198 38.2815 96.4735 38.0522 95.6088 38.0522C94.8239 38.0522 94.1398 38.2337 93.5566 38.5969C92.9733 38.9409 92.611 39.457 92.4703 40.1451H88.6982C88.799 39.113 89.1613 38.2146 89.7844 37.45C90.4286 36.6855 91.2534 36.1025 92.2588 35.7012C93.2652 35.2807 94.3913 35.0704 95.6387 35.0704C97.7713 35.0704 99.4507 35.5769 100.678 36.5899C101.905 37.603 102.519 39.0366 102.519 40.8905V49.6351H99.2292L98.8675 47.3416C98.4249 48.1061 97.8012 48.7366 96.9969 49.2338C96.212 49.7306 95.1961 49.9793 93.9487 49.9793ZM94.8239 47.112C95.9306 47.112 96.7853 46.7678 97.3885 46.0798C98.0122 45.3919 98.4049 44.5411 98.5661 43.5282H95.2765C94.2506 43.5282 93.5167 43.7098 93.0736 44.0729C92.6315 44.4168 92.41 44.8472 92.41 45.3631C92.41 45.9175 92.6315 46.3475 93.0736 46.6532C93.5167 46.9589 94.0994 47.112 94.8239 47.112Z" fill="#81818B"/>
<path id="Vector_4" d="M108.599 49.6351L103.107 35.4144H107.15L110.952 46.1661L114.754 35.4144H118.798L113.276 49.6351H108.599Z" fill="#81818B"/>
<path id="Vector_5" d="M126.562 49.9793C125.054 49.9793 123.716 49.6732 122.549 49.0617C121.383 48.4499 120.468 47.5898 119.803 46.4811C119.139 45.3728 118.808 44.092 118.808 42.6394C118.808 41.1677 119.13 39.8584 119.773 38.7116C120.437 37.5648 121.342 36.676 122.489 36.0452C123.655 35.3954 125.024 35.0704 126.593 35.0704C128.061 35.0704 129.359 35.3762 130.486 35.9879C131.612 36.5995 132.487 37.4405 133.111 38.5109C133.754 39.5621 134.077 40.7376 134.077 42.0373C134.077 42.2476 134.066 42.4674 134.046 42.6967C134.046 42.9262 134.036 43.165 134.016 43.4135H122.64C122.72 44.5221 123.123 45.3919 123.847 46.0228C124.591 46.6532 125.487 46.9687 126.533 46.9687C127.317 46.9687 127.971 46.8063 128.494 46.4811C129.037 46.1373 129.439 45.6976 129.701 45.1622H133.624C133.342 46.0608 132.869 46.8828 132.206 47.6283C131.561 48.3543 130.757 48.9277 129.791 49.3484C128.846 49.7687 127.769 49.9793 126.562 49.9793ZM126.593 38.0522C125.648 38.0522 124.812 38.3102 124.088 38.8262C123.364 39.3232 122.901 40.0878 122.7 41.1199H130.153C130.093 40.1833 129.731 39.4379 129.067 38.8836C128.403 38.3293 127.579 38.0522 126.593 38.0522Z" fill="#81818B"/>
<path id="Vector_6" d="M136.118 49.6351V28.9922H139.98V49.6351H136.118Z" fill="#81818B"/>
<path id="Vector_7" d="M149.991 49.9793C148.483 49.9793 147.145 49.6732 145.978 49.0617C144.812 48.4499 143.897 47.5898 143.233 46.4811C142.568 45.3728 142.237 44.092 142.237 42.6394C142.237 41.1677 142.559 39.8584 143.202 38.7116C143.866 37.5648 144.771 36.676 145.918 36.0452C147.085 35.3954 148.453 35.0704 150.022 35.0704C151.49 35.0704 152.788 35.3762 153.915 35.9879C155.041 36.5995 155.917 37.4405 156.54 38.5109C157.183 39.5621 157.506 40.7376 157.506 42.0373C157.506 42.2476 157.495 42.4674 157.475 42.6967C157.475 42.9262 157.465 43.165 157.445 43.4135H146.069C146.149 44.5221 146.552 45.3919 147.276 46.0228C148.02 46.6532 148.916 46.9687 149.962 46.9687C150.746 46.9687 151.4 46.8063 151.923 46.4811C152.466 46.1373 152.868 45.6976 153.13 45.1622H157.053C156.771 46.0608 156.298 46.8828 155.635 47.6283C154.99 48.3543 154.186 48.9277 153.22 49.3484C152.275 49.7687 151.199 49.9793 149.991 49.9793ZM150.022 38.0522C149.077 38.0522 148.242 38.3102 147.517 38.8262C146.793 39.3232 146.331 40.0878 146.129 41.1199H153.582C153.522 40.1833 153.16 39.4379 152.496 38.8836C151.832 38.3293 151.008 38.0522 150.022 38.0522Z" fill="#81818B"/>
<path id="Vector_8" d="M165.733 49.9793C164.405 49.9793 163.238 49.7784 162.233 49.3772C161.226 48.9564 160.422 48.3831 159.818 47.6566C159.215 46.9306 158.853 46.0896 158.732 45.134H162.625C162.745 45.6878 163.068 46.1661 163.591 46.5674C164.133 46.9496 164.827 47.1408 165.672 47.1408C166.517 47.1408 167.131 46.9784 167.513 46.6532C167.915 46.3285 168.117 45.9555 168.117 45.5352C168.117 44.9234 167.835 44.5124 167.272 44.3022C166.709 44.0729 165.924 43.8532 164.918 43.6429C164.275 43.5091 163.621 43.3466 162.957 43.1555C162.293 42.9644 161.68 42.7254 161.116 42.4388C160.573 42.1329 160.13 41.7506 159.788 41.2919C159.446 40.814 159.276 40.2311 159.276 39.543C159.276 38.2815 159.798 37.2207 160.845 36.3606C161.911 35.5005 163.399 35.0704 165.31 35.0704C167.081 35.0704 168.489 35.4622 169.535 36.2459C170.601 37.0296 171.235 38.1095 171.436 39.4857H167.785C167.563 38.4344 166.728 37.9088 165.281 37.9088C164.556 37.9088 163.993 38.0426 163.591 38.3102C163.208 38.5778 163.017 38.9122 163.017 39.3136C163.017 39.7342 163.309 40.0686 163.892 40.3171C164.476 40.5656 165.25 40.7949 166.216 41.0052C167.261 41.2346 168.217 41.4926 169.082 41.7793C169.967 42.0469 170.671 42.4579 171.195 43.0122C171.718 43.5473 171.979 44.3212 171.979 45.3343C171.999 46.2139 171.757 47.0067 171.255 47.7141C170.752 48.4211 170.028 48.9754 169.082 49.3772C168.137 49.7784 167.02 49.9793 165.733 49.9793Z" fill="#81818B"/>
<path id="Vector_9" d="M180.379 49.9793C179.052 49.9793 177.885 49.7784 176.879 49.3772C175.873 48.9564 175.069 48.3831 174.465 47.6566C173.862 46.9306 173.499 46.0896 173.379 45.134H177.272C177.392 45.6878 177.714 46.1661 178.237 46.5674C178.78 46.9496 179.474 47.1408 180.319 47.1408C181.164 47.1408 181.778 46.9784 182.16 46.6532C182.562 46.3285 182.764 45.9555 182.764 45.5352C182.764 44.9234 182.482 44.5124 181.918 44.3022C181.355 44.0729 180.571 43.8532 179.565 43.6429C178.921 43.5091 178.267 43.3466 177.603 43.1555C176.94 42.9644 176.326 42.7254 175.763 42.4388C175.22 42.1329 174.777 41.7506 174.435 41.2919C174.093 40.814 173.922 40.2311 173.922 39.543C173.922 38.2815 174.445 37.2207 175.491 36.3606C176.558 35.5005 178.046 35.0704 179.957 35.0704C181.727 35.0704 183.135 35.4622 184.182 36.2459C185.247 37.0296 185.881 38.1095 186.083 39.4857H182.431C182.21 38.4344 181.375 37.9088 179.927 37.9088C179.202 37.9088 178.639 38.0426 178.237 38.3102C177.855 38.5778 177.664 38.9122 177.664 39.3136C177.664 39.7342 177.955 40.0686 178.539 40.3171C179.122 40.5656 179.896 40.7949 180.862 41.0052C181.908 41.2346 182.864 41.4926 183.729 41.7793C184.614 42.0469 185.318 42.4579 185.841 43.0122C186.364 43.5473 186.626 44.3212 186.626 45.3343C186.646 46.2139 186.404 47.0067 185.901 47.7141C185.398 48.4211 184.675 48.9754 183.729 49.3772C182.783 49.7784 181.667 49.9793 180.379 49.9793Z" fill="#81818B"/>
</g>
</svg>

<svg xmlns="http://www.w3.org/2000/svg" width="210" height="79" fill="none"><g fill="#81818B"><path fill-rule="evenodd" d="M29.415 30.97c2.74-3.502 7.129-5.77 12.075-5.77 4.975 0 9.385 2.295 12.122 5.832a4.182 4.182 0 0 0-.318.35c-.502.617-.879 1.411-1.181 2.218-.609 1.623-1.073 3.743-1.502 5.728l-.039.178c-.429 1.982-.827 3.824-1.31 5.192-.216.615-.42 1.05-.603 1.327-.19-.28-.406-.72-.634-1.343-.515-1.407-.949-3.321-1.408-5.365l-.015-.067c-.442-1.963-.91-4.046-1.494-5.64-.294-.8-.654-1.588-1.125-2.199-.462-.6-1.231-1.276-2.356-1.276-1.119 0-1.891.67-2.36 1.262-.48.607-.855 1.39-1.163 2.192-.62 1.614-1.128 3.724-1.6 5.712l-.05.205c-.467 1.97-.904 3.81-1.4 5.18-.19.524-.37.922-.53 1.207a8.033 8.033 0 0 1-.518-1.198c-.476-1.341-.893-3.13-1.341-5.052l-.079-.337c-.464-1.989-.967-4.103-1.597-5.722-.313-.804-.696-1.591-1.19-2.201a4.139 4.139 0 0 0-.384-.413Zm-1.658 2.69c.13.244.268.548.411.915.545 1.4 1.007 3.313 1.483 5.35l.092.397c.433 1.859.883 3.792 1.414 5.286.282.795.623 1.573 1.06 2.178.415.572 1.159 1.31 2.302 1.31 1.14 0 1.885-.735 2.302-1.304.442-.604.788-1.38 1.076-2.176.552-1.523 1.021-3.502 1.471-5.396l.069-.29c.484-2.038.95-3.954 1.492-5.36.25-.651.485-1.105.69-1.387.193.28.414.726.649 1.366.515 1.407.948 3.321 1.408 5.365l.015.067c.441 1.963.91 4.046 1.494 5.64.293.801.654 1.588 1.124 2.199.463.6 1.232 1.277 2.357 1.277 1.131 0 1.897-.684 2.354-1.289.464-.614.813-1.403 1.094-2.203.542-1.536.972-3.53 1.383-5.426l.059-.276c.442-2.04.866-3.947 1.39-5.344.113-.304.225-.563.332-.78a13.632 13.632 0 0 1 1.248 5.707c0 7.89-6.732 14.286-15.036 14.286-8.304 0-15.036-6.396-15.036-14.286 0-2.075.465-4.047 1.303-5.826ZM41.49 22.342c-9.965 0-18.043 7.675-18.043 17.144 0 9.468 8.078 17.143 18.043 17.143s18.043-7.675 18.043-17.143c0-9.469-8.078-17.144-18.043-17.144Zm.344 10.602-.01.007a.045.045 0 0 1 .01-.007Zm-.416.002a.043.043 0 0 1-.01-.007l.01.007Zm7.02 13.35.01-.007a.044.044 0 0 1-.01.008Zm.437-.01a.05.05 0 0 1 .01.006l-.01-.007Zm-14.664.036.012-.01a.075.075 0 0 1-.012.01Zm.608-.007c.01.006.013.01.013.01l-.013-.01Z" clip-rule="evenodd"/><path d="m69.496 49.635-4.375-14.22h3.832l2.595 10.235 3.017-10.236h4.285l3.018 10.236 2.625-10.236h3.833L83.92 49.635h-4.013l-3.2-10.637-3.197 10.637h-4.014ZM93.949 49.98c-1.288 0-2.344-.192-3.169-.574-.824-.402-1.438-.927-1.84-1.577a4.007 4.007 0 0 1-.603-2.15c0-1.32.542-2.39 1.629-3.212 1.086-.822 2.716-1.232 4.888-1.232h3.802v-.344c0-.975-.291-1.692-.875-2.15-.583-.46-1.308-.689-2.172-.689-.785 0-1.47.182-2.052.545-.584.344-.946.86-1.087 1.548h-3.772c.101-1.032.463-1.93 1.086-2.695.645-.765 1.47-1.348 2.475-1.749 1.006-.42 2.132-.63 3.38-.63 2.132 0 3.812.506 5.039 1.519 1.227 1.013 1.841 2.447 1.841 4.3v8.745h-3.29l-.361-2.293c-.443.764-1.067 1.395-1.871 1.892-.785.497-1.8.745-3.048.745Zm.875-2.868c1.107 0 1.961-.344 2.564-1.032.624-.688 1.017-1.539 1.178-2.552h-3.29c-1.025 0-1.76.182-2.202.545-.442.344-.664.774-.664 1.29 0 .554.222.984.664 1.29.443.306 1.025.459 1.75.459ZM108.599 49.635l-5.492-14.22h4.043l3.802 10.751 3.802-10.752h4.044l-5.522 14.221h-4.677ZM126.562 49.98c-1.508 0-2.846-.307-4.013-.918a6.844 6.844 0 0 1-2.746-2.58c-.664-1.11-.995-2.39-.995-3.843 0-1.471.322-2.78.965-3.927a6.966 6.966 0 0 1 2.716-2.667c1.166-.65 2.535-.975 4.104-.975 1.468 0 2.766.306 3.893.918 1.126.611 2.001 1.453 2.625 2.523.643 1.051.966 2.227.966 3.526 0 .21-.011.43-.031.66 0 .23-.01.468-.03.716H122.64c.08 1.11.483 1.979 1.207 2.61.744.63 1.64.946 2.686.946.784 0 1.438-.163 1.961-.488a3.227 3.227 0 0 0 1.207-1.319h3.923a6.709 6.709 0 0 1-1.418 2.466c-.645.726-1.449 1.3-2.415 1.72-.945.42-2.022.631-3.229.631Zm.031-11.928c-.945 0-1.781.258-2.505.774-.724.497-1.187 1.262-1.388 2.294h7.453c-.06-.937-.422-1.682-1.086-2.236-.664-.555-1.488-.832-2.474-.832ZM136.118 49.635V28.992h3.862v20.643h-3.862ZM149.991 49.98c-1.508 0-2.846-.307-4.013-.918a6.835 6.835 0 0 1-2.745-2.58c-.665-1.11-.996-2.39-.996-3.843 0-1.471.322-2.78.965-3.927a6.966 6.966 0 0 1 2.716-2.667c1.167-.65 2.535-.975 4.104-.975 1.468 0 2.766.306 3.893.918 1.126.611 2.002 1.453 2.625 2.523.643 1.051.966 2.227.966 3.526 0 .21-.011.43-.031.66 0 .23-.01.468-.03.716h-11.376c.08 1.11.483 1.979 1.207 2.61.744.63 1.64.946 2.686.946.784 0 1.438-.163 1.961-.488a3.227 3.227 0 0 0 1.207-1.319h3.923a6.709 6.709 0 0 1-1.418 2.466c-.645.726-1.449 1.3-2.415 1.72-.945.42-2.021.631-3.229.631Zm.031-11.928c-.945 0-1.78.258-2.505.774-.724.497-1.186 1.262-1.388 2.294h7.453c-.06-.937-.422-1.682-1.086-2.236-.664-.555-1.488-.832-2.474-.832ZM165.733 49.98c-1.328 0-2.495-.202-3.5-.603-1.007-.42-1.811-.994-2.415-1.72a4.813 4.813 0 0 1-1.086-2.523h3.893c.12.554.443 1.032.966 1.433.542.383 1.236.574 2.081.574s1.459-.163 1.841-.488c.402-.325.604-.697.604-1.118 0-.612-.282-1.023-.845-1.233-.563-.23-1.348-.449-2.354-.66a26.933 26.933 0 0 1-1.961-.486 10.404 10.404 0 0 1-1.841-.717 4.2 4.2 0 0 1-1.328-1.147c-.342-.478-.512-1.06-.512-1.749 0-1.261.522-2.322 1.569-3.182 1.066-.86 2.554-1.29 4.465-1.29 1.771 0 3.179.391 4.225 1.175 1.066.784 1.7 1.863 1.901 3.24h-3.651c-.222-1.052-1.057-1.577-2.504-1.577-.725 0-1.288.134-1.69.401-.383.268-.574.602-.574 1.004 0 .42.292.755.875 1.003.584.249 1.358.478 2.324.688 1.045.23 2.001.488 2.866.774.885.268 1.589.679 2.113 1.233.523.535.784 1.31.784 2.322.02.88-.222 1.673-.724 2.38-.503.707-1.227 1.261-2.173 1.663-.945.401-2.062.602-3.349.602ZM180.379 49.98c-1.327 0-2.494-.202-3.5-.603-1.006-.42-1.81-.994-2.414-1.72a4.805 4.805 0 0 1-1.086-2.523h3.893c.12.554.442 1.032.965 1.433.543.383 1.237.574 2.082.574.845 0 1.459-.163 1.841-.488.402-.325.604-.697.604-1.118 0-.612-.282-1.023-.846-1.233-.563-.23-1.347-.449-2.353-.66a26.83 26.83 0 0 1-1.962-.486 10.393 10.393 0 0 1-1.84-.717 4.2 4.2 0 0 1-1.328-1.147c-.342-.478-.513-1.06-.513-1.749 0-1.261.523-2.322 1.569-3.182 1.067-.86 2.555-1.29 4.466-1.29 1.77 0 3.178.391 4.225 1.175 1.065.784 1.699 1.863 1.901 3.24h-3.652c-.221-1.052-1.056-1.577-2.504-1.577-.725 0-1.288.134-1.69.401-.382.268-.573.602-.573 1.004 0 .42.291.755.875 1.003.583.249 1.357.478 2.323.688 1.046.23 2.002.488 2.867.774.885.268 1.589.679 2.112 1.233.523.535.785 1.31.785 2.322a3.85 3.85 0 0 1-.725 2.38c-.503.707-1.226 1.261-2.172 1.663-.946.401-2.062.602-3.35.602Z"/></g></svg>
